img/svg/16/device/wp10.svg

<svg xmlns="http://www.w3.org/2000/svg" viewBox="0 0 16 16" enable-background="new 0 0 16 16"><path d="M1.008 3.214l5.961-.834-.001 5.62h-5.96v-4.786zm5.96 5.786l.001 5.62-5.961-.833v-4.786h5.96zm1.032-6.764l6.995-.978v6.742h-6.995v-5.764zm6.995 6.764v6.742l-6.995-1.122v-5.62h6.995z" fill="#ccc"/></svg>

<svg xmlns="http://www.w3.org/2000/svg" viewBox="0 0 16 16"><path fill="#ccc" d="m1.008 3.214 5.961-.834L6.968 8h-5.96V3.214zM6.968 9l.001 5.62-5.961-.833V9.001h5.96zM8 2.236l6.995-.978V8H8V2.236zM14.995 9v6.742L8 14.62V9h6.995z"/></svg>
